svg/Pictogram/pictograms-aem-0008-force_applied_to_lower_leg.svg

<?xml version="1.0" encoding="ISO-8859-1" standalone="yes"?>
<svg height="304.014" width="304.015">
  <metadata>
    <rdf:RDF xmlns:cc="http://web.resource.org/cc/" xmlns:dc="http://purl.org/dc/elements/1.1/" xmlns:rdf="http://www.w3.org/1999/02/22-rdf-syntax-ns#">
      <cc:Work rdf:about="">
        <dc:title></dc:title>
        <dc:description></dc:description>
        <dc:subject>
          <rdf:Bag>
            <rdf:li></rdf:li>
          </rdf:Bag>
        </dc:subject>
        <dc:publisher>
          <cc:Agent rdf:about="http://www.unece.org/trans/danger/publi/ghs/pictograms.html">
            <dc:title>Source: UNECE GHS of Classification and Labeling of Chemicals, Source: AEM Pictorial Database, Source: AEM Pictorial Database, Source: AEM Pictorial Database, Source: AEM Pictorial Database</dc:title>
          </cc:Agent>
        </dc:publisher>
        <dc:creator>
          <cc:Agent>
            <dc:title></dc:title>
          </cc:Agent>
        </dc:creator>
        <dc:rights>
          <cc:Agent>
            <dc:title></dc:title>
          </cc:Agent>
        </dc:rights>
        <dc:date></dc:date>
        <dc:format>image/svg+xml</dc:format>
        <dc:type rdf:resource="http://purl.org/dc/dcmitype/StillImage"/>
        <cc:license rdf:resource="http://en.wikipedia.org/wiki/Public_domain"/>
        <dc:language>en</dc:language>
      </cc:Work>
    </rdf:RDF>
  </metadata>
  <defs><marker id="ArrowEnd" markerHeight="3" markerUnits="strokeWidth" markerWidth="4" orient="auto" refX="0" refY="5" viewBox="0 0 10 10"><path d="M 0 0 L 10 5 L 0 10 z"/></marker><marker id="ArrowStart" markerHeight="3" markerUnits="strokeWidth" markerWidth="4" orient="auto" refX="10" refY="5" viewBox="0 0 10 10"><path d="M 10 0 L 0 5 L 10 10 z"/></marker> </defs>
  <g id="g2958" transform="matrix(1.3532768,0,0,1.3532781,-53.207834,-52.192858)">
    <path d="M 241.304 52.2884L 167.397 52.2884L 167.397 99.3894L 187.628 99.3894L 187.628 141.459L 167.397 141.459L 167.397 180.416L 241.323 180.416L 241.304 52.2914" style="stroke:none; fill-rule:evenodd; fill:#000000"/>
    <path d="M 114.835 226.745C 95.8904 231.581 85.3124 236.299 85.3124 251.725L 154.909 251.725L 189.319 236.756L 189.319 251.526L 237.147 251.526L 237.147 236.17C 237.147 236.17 243.167 223.92 243.167 211.678C 243.167 198.456 237.534 185.819 237.534 185.721L 169.007 185.721C 169.007 187.163 150.581 217.616 114.835 226.741" style="stroke:none; fill-rule:evenodd; fill:#000000"/>
    <path d="M 61.0154 103.198L 183.608 103.198L 183.608 136.842L 61.0154 136.842L 61.0154 103.198zM 134.487 126.721L 150.546 126.721L 150.546 132.467L 171.319 118.764L 149.222 107.569L 149.222 113.612L 134.487 113.612L 134.487 126.721" style="stroke:none; fill-rule:evenodd; fill:#000000"/>
    <path d="M 29.6204 265.393L 2.62042 265.393" style="stroke:#000000; stroke-width:0.5; fill:none"/>
    <path d="M 38.6204 274.393L 38.6204 301.393" style="stroke:#000000; stroke-width:0.5; fill:none"/>
    <path d="M 29.6204 38.6204L 2.62042 38.6204" style="stroke:#000000; stroke-width:0.5; fill:none"/>
    <path d="M 38.6204 29.6204L 38.6204 2.62042" style="stroke:#000000; stroke-width:0.5; fill:none"/>
    <path d="M 274.394 38.6204L 301.394 38.6204" style="stroke:#000000; stroke-width:0.5; fill:none"/>
    <path d="M 265.394 29.6204L 265.394 2.62042" style="stroke:#000000; stroke-width:0.5; fill:none"/>
    <path d="M 274.394 265.393L 301.394 265.393" style="stroke:#000000; stroke-width:0.5; fill:none"/>
    <path d="M 265.394 274.393L 265.394 301.393" style="stroke:#000000; stroke-width:0.5; fill:none"/>
  </g>
</svg>

<svg viewBox="0 0 304.01 304.01"><g transform="matrix(1.35328 0 0 1.35328-53.21-52.19)" fill-rule="evenodd"><path d="m241.3 52.29h-73.907v47.1h20.231v42.07h-20.231v38.957h73.926l-.019-128.12"/><path d="m114.83 226.75c-18.945 4.836-29.523 9.554-29.523 24.98h69.6l34.41-14.969v14.77h47.828v-15.356c0 0 6.02-12.25 6.02-24.492 0-13.222-5.633-25.859-5.633-25.957h-68.53c0 1.442-18.426 31.895-54.17 41.02"/><path d="m61.02 103.2h122.59v33.644h-122.59v-33.644m73.47 23.523h16.06v5.746l20.773-13.703-22.1-11.195v6.04h-14.735v13.11"/></g></svg>
